assets/static/svgs/logos/logo-bombay-short.svg

<svg width="1em" height="1em"  viewBox="0 0 19 27" fill="none" xmlns="http://www.w3.org/2000/svg">
<symbol id="item"
width="1em"
height="1em"
viewBox="0 0 19 27"
fill="none"
>
 <path d="M18.1457 15.4166C18.1457 11.9583 16.2291 8.9479 13.3958 7.3854C13.7187 6.7604 13.8958 6.06248 13.8958 5.31248C13.8958 3.86457 13.2187 2.61456 12.1562 1.80206C11.1249 0.999981 10.0937 0.499982 8.15617 0.624982C6.19784 0.749982 5.08325 1.9479 5.08325 1.9479C5.03117 1.99998 4.97908 2.05206 4.93742 2.10415C4.44783 2.67706 4.19784 3.37498 4.19784 4.0729C4.18742 4.93748 4.552 5.79165 5.24992 6.40623C5.38533 6.52082 5.52075 6.62498 5.66658 6.70831C5.8645 6.8229 6.1145 6.72915 6.19784 6.52081L6.46867 5.78123L6.49992 5.68748V5.67707C6.44783 5.65623 6.40617 5.6354 6.3645 5.61456C5.6145 5.14581 5.16659 4.27082 5.29159 3.33332C5.33325 3.04165 5.427 2.7604 5.56242 2.52081C5.65617 2.35415 6.47909 1.11456 8.74992 1.31248C9.09367 1.35415 9.46867 1.43748 9.85408 1.59373C10.0312 1.65623 10.1978 1.73956 10.3645 1.83331C10.3749 1.83331 10.3749 1.84373 10.3853 1.84373C11.4062 2.42706 12.0833 3.52081 12.0833 4.77081C12.0833 5.78123 11.7395 6.79165 11.0416 7.40623L11.0312 7.41665C10.927 7.5104 10.8228 7.60415 10.6978 7.6979C10.2916 7.93748 9.802 8.09373 9.32284 8.17707V5.60415C9.32284 5.59373 9.32284 5.58332 9.32284 5.5729V4.34373C9.32284 4.15623 9.19784 3.97915 9.01034 3.92706L7.87492 3.58331V8.2604H6.88534C6.63534 8.2604 6.40617 8.41665 6.31242 8.65623L6.02075 9.4479L7.7395 9.46873C8.82284 9.52081 9.85409 9.73956 10.7812 10.0937C11.0728 10.1979 11.3541 10.3229 11.6249 10.4687C13.0103 11.1979 14.0937 12.4166 14.6562 13.8958C14.927 14.6146 15.0728 15.3854 15.0728 16.1979C15.0728 16.5521 15.0416 16.8854 14.9895 17.2187C14.8957 17.9271 14.6874 18.6146 14.3957 19.2396C13.2707 21.6354 10.8437 23.2916 8.02075 23.2916C6.52075 23.2916 5.12492 22.8229 3.97908 22.0208C3.802 21.8958 3.62492 21.7604 3.45825 21.6146C3.22908 21.4271 3.02075 21.2187 2.82284 21C2.07284 20.1458 1.59367 19.0521 1.59367 17.8646C1.59367 15.2396 3.71867 13.2812 6.34367 13.2812C6.96867 13.2812 7.56242 13.3958 8.10409 13.6146C8.6145 13.8333 9.052 14.1458 9.39575 14.5312C9.76033 15 9.9895 15.5937 9.9895 16.2396C9.9895 16.8646 9.78117 17.4479 9.427 17.9062C8.96867 18.4375 8.31242 18.5104 8.01033 18.5208C7.6145 18.5104 7.27075 18.4271 7.03117 18.3437C6.83325 18.2708 6.60408 18.3854 6.53117 18.5833L6.35409 19.0625C6.74992 19.2708 7.19784 19.3958 7.66659 19.4375C7.677 19.4375 7.68742 19.4375 7.69783 19.4375C7.7395 19.4375 7.78117 19.4375 7.83325 19.4479C7.85408 19.4479 7.88533 19.4479 7.90617 19.4479C7.91658 19.4479 7.927 19.4479 7.93742 19.4479C7.9895 19.4479 8.04159 19.4479 8.08325 19.4479C8.09367 19.4479 8.09367 19.4479 8.10409 19.4479C8.16659 19.4479 8.22909 19.4375 8.29159 19.4375C10.3541 19.2396 12.0208 17.3229 12.0208 15.1354C12.0208 13.3021 10.8853 11.7291 9.27075 11.0937C9.20825 11.0625 9.14575 11.0416 9.08325 11.0208C8.37492 10.75 7.60408 10.6041 6.79158 10.6041C4.81242 10.6041 3.04159 11.4896 1.85409 12.8854C0.885338 14.0208 0.302002 15.4791 0.302002 17.0833C0.302002 17.1354 0.302002 17.1771 0.302002 17.2291C0.302002 17.2396 0.302002 17.2604 0.302002 17.2708C0.302002 17.3229 0.302006 17.375 0.312422 17.4271C0.312422 17.4271 0.312422 17.4271 0.312422 17.4375C0.322839 17.5625 0.333254 17.6875 0.343671 17.8125C0.739504 21.6562 3.97909 24.6458 7.87492 24.6666V26.2916L9.052 25.9896C9.20825 25.9479 9.32284 25.8021 9.32284 25.6458V24.9166C9.32284 24.8958 9.32284 24.875 9.32284 24.8541V24.75C14.2187 24.5833 18.1457 20.5625 18.1457 15.625C18.1457 15.6041 18.1457 15.5833 18.1457 15.5729C18.1457 15.4791 18.1457 15.4479 18.1457 15.4166Z" fill="url(#paint0_linear)"/> <defs> <linearGradient id="paint0_linear" x1="1.41375" y1="2.46143" x2="15.5513" y2="25.1521" gradientUnits="userSpaceOnUse"> <stop stop-color="#CDAE81"/> <stop offset="1" stop-color="#B29265"/> </linearGradient> </defs> 
</symbol>
</svg>

<svg width="1em" height="1em"    viewBox="0 0 19 27" fill="none" xmlns="http://www.w3.org/2000/svg">
<symbol id="item"
width="1em"
height="1em"
viewBox="0 0 19 27"
fill="none"
>
<path d="M18.146 15.417a9.162 9.162 0 0 0-4.75-8.032 4.48 4.48 0 0 0 .5-2.073 4.376 4.376 0 0 0-1.74-3.51C11.125 1 10.094.5 8.156.625 6.198.75 5.083 1.948 5.083 1.948c-.052.052-.104.104-.146.156a3.057 3.057 0 0 0 .73 4.604c.197.115.447.021.53-.187l.272-.74.03-.094v-.01a1.695 1.695 0 0 1-.135-.062 2.322 2.322 0 0 1-.802-3.094c.094-.167.917-1.406 3.188-1.209.344.042.719.125 1.104.282.177.062.344.146.51.24.01 0 .01.01.021.01a3.363 3.363 0 0 1 1.698 2.927c0 1.01-.344 2.02-1.041 2.635l-.01.01c-.105.094-.21.188-.334.282-.406.24-.896.396-1.375.48V4.342a.434.434 0 0 0-.313-.416l-1.135-.344V8.26h-.99c-.25 0-.479.157-.573.396l-.291.792 1.718.02a9.876 9.876 0 0 1 3.042.626c.292.104.573.229.844.375a6.477 6.477 0 0 1 3.031 3.427 6.495 6.495 0 0 1 .333 3.323 6.97 6.97 0 0 1-.593 2.02 7.034 7.034 0 0 1-6.375 4.053c-1.5 0-2.896-.47-4.042-1.271a6.381 6.381 0 0 1-.52-.406A5.907 5.907 0 0 1 2.822 21c-.75-.854-1.23-1.948-1.23-3.135 0-2.625 2.126-4.584 4.75-4.584.626 0 1.22.115 1.761.334.51.218.948.53 1.292.916.364.469.593 1.063.593 1.709 0 .625-.208 1.208-.562 1.666-.458.532-1.115.604-1.417.615a3.294 3.294 0 0 1-.979-.177.4.4 0 0 0-.5.24l-.177.479a3.48 3.48 0 0 0 1.313.375h.03c.042 0 .084 0 .136.01h.271c.063 0 .125-.01.188-.01 2.062-.198 3.729-2.115 3.729-4.303a4.342 4.342 0 0 0-2.75-4.041 1.393 1.393 0 0 0-.188-.073 6.396 6.396 0 0 0-2.291-.417c-1.98 0-3.75.886-4.938 2.281A6.432 6.432 0 0 0 .302 17.23v.042c0 .052 0 .104.01.156v.01l.032.375c.396 3.844 3.635 6.834 7.53 6.855v1.625l1.178-.302a.366.366 0 0 0 .27-.344v-.896c4.897-.167 8.824-4.188 8.824-9.125v-.208Z" fill="url(#a)"/><defs><linearGradient id="a" x1="1.414" y1="2.461" x2="15.551" y2="25.152" gradientUnits="userSpaceOnUse"><stop stop-color="#CDAE81"/><stop offset="1" stop-color="#B29265"/></linearGradient></defs>
</symbol>
</svg>
